X: 108
M: 2/4
L: 1/8
K: G
dBGB | cAFA | BGEG | FDD B/c/ |\
dBGB | cAFA | BGEF | G2G, :|
|: G/A/ |\

